X: 40432
T: Tom Mhic's
R: polka
M: 2/4
K: Gmajor
|:g2 f2|ed Bd|e2 e>f|ed B/c/d/B/|
g2 fg/f/|ed B2|A>B cA|AG G2:|
|:GA Bd|ed BG|AA/B/ cd|ed B>A|
GA Bd|ed B>G|AB cA|AG G2:|

